icons/file-copy.svg

<svg width="24" height="24" viewBox="0 0 24 24" fill="none" xmlns="http://www.w3.org/2000/svg">
<path fill-rule="evenodd" clip-rule="evenodd" d="M7 3C7 2.44772 7.44772 2 8 2H20C20.5523 2 21 2.44772 21 3V17C21 17.5523 20.5523 18 20 18H17V21C17 21.5523 16.5523 22 16 22H4C3.44772 22 3 21.5523 3 21V7C3 6.44772 3.44772 6 4 6H7V3ZM9 6H16C16.5523 6 17 6.44772 17 7V16H19V4H9V6ZM5 8V20H15V8H5Z" fill="black"/>
</svg>

<svg
  width="24"
  height="24"
  viewBox="0 0 24 24"
  xmlns="http://www.w3.org/2000/svg"
>
  <path
    fill-rule="evenodd"
    clip-rule="evenodd"
    d="M7 3a1 1 0 0 1 1-1h12a1 1 0 0 1 1 1v14a1 1 0 0 1-1 1h-3v3a1 1 0 0 1-1 1H4a1 1 0 0 1-1-1V7a1 1 0 0 1 1-1h3V3zm2 3h7a1 1 0 0 1 1 1v9h2V4H9v2zM5 8v12h10V8H5z"
  />
</svg>
